X:1
T:Title
%%score { ( 1 4 ) | ( 2 3 ) }
L:1/8
Q:1/4=100
M:4/4
K:Eb
V:1 treble nm="Grand Piano"
V:4 treble 
V:2 bass 
V:3 bass 
V:1
 [GB]>[GB] [_G=A]>[=GB] [_Ac]2 [GB]2 | G>G _G>=G A2 G2 | [DF]>[DF] [DF]>[EG] [FA]>[FA] [GB]>[FA] | %3
w: John~R.~Sweney * * * * *|||
 G4 B4 | c>c c>c e2 c2 | c>B B>G B2 G2 | [DF]>[DF] [_D=E]>[=DF] [DB]2 [Fd]2 | %7
w: ||||
[M:9/8] c>cB- B/=A/ B2 _A3 |[M:4/4] G>G G>[FA] [GB]4 | c>c c>c [GB]4 | %10
w: |||
 [Ge]>[Ge] [Ge]>[Ac] [Ac]>[GB] [GB]>[EG] | [DF]2 [EG]2 [DF]4 | G>G G>[FA] [GB]4 | c>c c>d e4 | %14
w: ||||
 [Ac]>[GB] [GB]>G B>B c>B | [EG]2 [DF]2 E4 |] %16
w: ||
V:2
 [E,E]>[E,E] [E,E]>[E,E] [E,E]2 [E,E]2 | [E,B,E]>[E,B,E] [E,=A,E]>[E,B,E] [E,CE]2 [E,B,E]2 | %2
 [B,,B,]>[B,,B,] [B,,B,]>[B,,B,] [B,,B,]>[B,,B,] [B,,B,]>[B,,B,] | B,4 z4 | %4
 [A,E]>[A,E] [A,E]>[A,E] [A,CE]2 [A,E]2 | [E,A,E]>[E,G,E] [E,G,E]>[E,B,E] [E,G,E]2 [E,B,E]2 | %6
 [B,,B,]>[B,,B,] [B,,B,]>[B,,B,] [B,,F,]2 [B,,B,]2 | %7
[M:9/8] [E,G,E]>[E,G,E][F,D]- [F,D]/[F,C]/ B,,2- [B,,B,]3 | %8
[M:4/4] [E,B,E]>[E,B,E] [E,B,E]>[E,B,] [E,E]4 | [A,EA]>[A,EA] [A,EA]>[A,EA][K:bass] [E,E]4 | %10
 [E,B,]>[E,B,] [E,B,]>[E,E] [E,E]>[E,E] [E,E]>[E,B,] | [B,,B,]2 [B,,B,]2 [B,,B,]4 | %12
 [E,B,E]>[E,B,E] [E,B,E]>[E,B,] [E,E]4 | [A,EA]>[A,EA] [A,EA]>[A,DA] [A,CA]4 | %14
 [E,E]>[E,E] [E,E]>[E,B,E] [E,G,E]>[E,G,E] [E,A,E]>[E,G,E] | [B,,B,]2 [B,,A,]2 [E,G,]4 |] %16
V:3
 x8 | x8 | x8 | [E,E]4- [E,G,E]4 | x8 | x8 | x8 |[M:9/8] z3 z F,2 z3 |[M:4/4] x8 | x4[K:bass] x4 | %10
 x8 | x8 | x8 | x8 | x8 | x8 |] %16
V:4
 x8 | x8 | x8 | x8 | x8 | x8 | x8 |[M:9/8] z3 z D2- D3 |[M:4/4] x8 | x8 | x8 | x8 | x8 | x8 | x8 | %15
 x8 |] %16

